files/resources/svgs/general/s-radio.svg

<svg width="24" height="24" viewBox="0 0 24 24" fill="none" xmlns="http://www.w3.org/2000/svg">
<path fill-rule="evenodd" clip-rule="evenodd" d="M20.4321 4.10278C20.8339 4.00232 21.0782 3.59512 20.9778 3.19328C20.8773 2.79143 20.4701 2.54711 20.0683 2.64757L4.12873 6.63246C4.06201 6.64329 3.99534 6.65426 3.92872 6.66536C2.49686 6.90396 1.5 8.15803 1.5 9.57421V18.7502C1.5 20.407 2.84315 21.7502 4.5 21.7502H19.5C21.1569 21.7502 22.5 20.407 22.5 18.7502V9.57421C22.5 8.15803 21.5031 6.90396 20.0713 6.66536C17.7057 6.27116 15.2828 6.04736 12.8157 6.00687L20.4321 4.10278ZM10.8471 12.663C11.14 12.9559 11.14 13.4307 10.8471 13.7236L10.8418 13.7289C10.5489 14.0218 10.074 14.0218 9.78115 13.7289L9.77584 13.7236C9.48295 13.4307 9.48295 12.9559 9.77584 12.663L9.78115 12.6577C10.074 12.3648 10.5489 12.3648 10.8418 12.6577L10.8471 12.663ZM9.78144 15.85C10.0743 16.1429 10.5492 16.1429 10.8421 15.85L10.8474 15.8447C11.1403 15.5518 11.1403 15.0769 10.8474 14.784L10.8421 14.7787C10.5492 14.4858 10.0743 14.4858 9.78144 14.7787L9.77613 14.784C9.48324 15.0769 9.48324 15.5518 9.77613 15.8447L9.78144 15.85ZM8.72602 14.7842C9.01891 15.0771 9.01891 15.552 8.72602 15.8449L8.72071 15.8502C8.42782 16.1431 7.95295 16.1431 7.66005 15.8502L7.65475 15.8449C7.36186 15.552 7.36186 15.0771 7.65475 14.7842L7.66005 14.7789C7.95295 14.486 8.42782 14.486 8.72071 14.7789L8.72602 14.7842ZM7.66034 13.7287C7.95324 14.0216 8.42811 14.0216 8.721 13.7287L8.72631 13.7234C9.0192 13.4305 9.0192 12.9557 8.72631 12.6628L8.721 12.6575C8.42811 12.3646 7.95324 12.3646 7.66034 12.6575L7.65504 12.6628C7.36215 12.9557 7.36215 13.4305 7.65504 13.7234L7.66034 13.7287ZM9.25488 9.75018C9.6691 9.75018 10.0049 10.086 10.0049 10.5002V10.5077C10.0049 10.9219 9.6691 11.2577 9.25488 11.2577H9.24738C8.83317 11.2577 8.49738 10.9219 8.49738 10.5077V10.5002C8.49738 10.086 8.83317 9.75018 9.24738 9.75018H9.25488ZM12.879 13.0298C13.2378 12.8227 13.3607 12.364 13.1536 12.0053L13.1498 11.9988C12.9427 11.6401 12.484 11.5171 12.1253 11.7243L12.1188 11.728C11.7601 11.9351 11.6372 12.3938 11.8443 12.7525L11.848 12.759C12.0551 13.1177 12.5138 13.2406 12.8725 13.0335L12.879 13.0298ZM11.4996 18.156C11.1409 18.3631 10.6822 18.2402 10.4751 17.8815L10.4713 17.875C10.2642 17.5163 10.3871 17.0576 10.7459 16.8505L10.7524 16.8467C11.1111 16.6396 11.5698 16.7625 11.7769 17.1212L11.7806 17.1277C11.9877 17.4865 11.8648 17.9451 11.5061 18.1523L11.4996 18.156ZM11.781 11.38C11.9881 11.0213 11.8652 10.5626 11.5065 10.3555L11.5 10.3518C11.1413 10.1447 10.6826 10.2676 10.4755 10.6263L10.4717 10.6328C10.2646 10.9915 10.3875 11.4502 10.7462 11.6573L10.7527 11.6611C11.1115 11.8682 11.5701 11.7453 11.7773 11.3865L11.781 11.38ZM13.1499 16.5089C12.9428 16.8676 12.4841 16.9906 12.1254 16.7834L12.1189 16.7797C11.7602 16.5726 11.6373 16.1139 11.8444 15.7552L11.8481 15.7487C12.0552 15.39 12.5139 15.2671 12.8726 15.4742L12.8791 15.4779C13.2379 15.685 13.3608 16.1437 13.1537 16.5024L13.1499 16.5089ZM13.0049 15.0075C13.4191 15.0075 13.7549 14.6717 13.7549 14.2575V14.25C13.7549 13.8358 13.4191 13.5 13.0049 13.5H12.9974C12.5832 13.5 12.2474 13.8358 12.2474 14.25V14.2575C12.2474 14.6717 12.5832 15.0075 12.9974 15.0075H13.0049ZM9.25488 17.2502C9.6691 17.2502 10.0049 17.586 10.0049 18.0002V18.0077C10.0049 18.4219 9.6691 18.7577 9.25488 18.7577H9.24738C8.83317 18.7577 8.49738 18.4219 8.49738 18.0077V18.0002C8.49738 17.586 8.83317 17.2502 9.24738 17.2502H9.25488ZM6.38393 16.7798C6.74265 16.5727 6.86555 16.114 6.65845 15.7553L6.6547 15.7488C6.44759 15.3901 5.9889 15.2671 5.63018 15.4743L5.62368 15.478C5.26496 15.6851 5.14206 16.1438 5.34916 16.5025L5.35291 16.509C5.56002 16.8677 6.01871 16.9906 6.37743 16.7835L6.38393 16.7798ZM7.74962 11.6609C7.3909 11.868 6.9322 11.7451 6.7251 11.3864L6.72135 11.3799C6.51424 11.0212 6.63715 10.5625 6.99587 10.3554L7.00236 10.3516C7.36108 10.1445 7.81977 10.2674 8.02688 10.6261L8.03063 10.6326C8.23774 10.9913 8.11483 11.45 7.75611 11.6571L7.74962 11.6609ZM8.03101 17.8752C8.23811 17.5164 8.11521 17.0578 7.75649 16.8506L7.74999 16.8469C7.39127 16.6398 6.93258 16.7627 6.72547 17.1214L6.72172 17.1279C6.51462 17.4866 6.63752 17.9453 6.99624 18.1524L7.00274 18.1562C7.36146 18.3633 7.82015 18.2404 8.02726 17.8817L8.03101 17.8752ZM6.65479 12.7589C6.44768 13.1176 5.98899 13.2406 5.63027 13.0334L5.62377 13.0297C5.26505 12.8226 5.14215 12.3639 5.34925 12.0052L5.353 11.9987C5.56011 11.64 6.0188 11.5171 6.37752 11.7242L6.38402 11.7279C6.74274 11.935 6.86564 12.3937 6.65854 12.7524L6.65479 12.7589ZM5.50488 15.0075C5.9191 15.0075 6.25488 14.6717 6.25488 14.2575V14.25C6.25488 13.8358 5.9191 13.5 5.50488 13.5H5.49738C5.08317 13.5 4.74738 13.8358 4.74738 14.25V14.2575C4.74738 14.6717 5.08317 15.0075 5.49738 15.0075H5.50488ZM17.25 10.5002C18.0784 10.5002 18.75 11.1718 18.75 12.0002C18.75 12.8286 18.0784 13.5002 17.25 13.5002C16.4216 13.5002 15.75 12.8286 15.75 12.0002C15.75 11.1718 16.4216 10.5002 17.25 10.5002ZM18.75 16.5002C18.75 15.6718 18.0784 15.0002 17.25 15.0002C16.4216 15.0002 15.75 15.6718 15.75 16.5002C15.75 17.3286 16.4216 18.0002 17.25 18.0002C18.0784 18.0002 18.75 17.3286 18.75 16.5002Z" fill="#0F172A"/>
</svg>

<svg xmlns="http://www.w3.org/2000/svg" viewBox="0 0 24 24" fill="currentColor" aria-hidden="true">
  <path fill-rule="evenodd" d="M20.432 4.103a.75.75 0 00-.364-1.455L4.128 6.632l-.2.033C2.498 6.904 1.5 8.158 1.5 9.575v9.175a3 3 0 003 3h15a3 3 0 003-3V9.574c0-1.416-.997-2.67-2.429-2.909a49.016 49.016 0 00-7.255-.658l7.616-1.904zm-9.585 8.56a.75.75 0 010 1.06l-.005.006a.75.75 0 01-1.06 0l-.006-.005a.75.75 0 010-1.061l.005-.005a.75.75 0 011.06 0l.006.005zM9.781 15.85a.75.75 0 001.061 0l.005-.005a.75.75 0 000-1.061l-.005-.005a.75.75 0 00-1.06 0l-.006.005a.75.75 0 000 1.06l.005.006zm-1.055-1.066a.75.75 0 010 1.06l-.005.006a.75.75 0 01-1.061 0l-.005-.005a.75.75 0 010-1.06l.005-.006a.75.75 0 011.06 0l.006.005zM7.66 13.73a.75.75 0 001.061 0l.005-.006a.75.75 0 000-1.06l-.005-.005a.75.75 0 00-1.06 0l-.006.005a.75.75 0 000 1.06l.005.006zM9.255 9.75a.75.75 0 01.75.75v.008a.75.75 0 01-.75.75h-.008a.75.75 0 01-.75-.75V10.5a.75.75 0 01.75-.75h.008zm3.624 3.28a.75.75 0 00.275-1.025L13.15 12a.75.75 0 00-1.025-.275l-.006.004a.75.75 0 00-.275 1.024l.004.007a.75.75 0 001.024.274l.007-.003zm-1.38 5.126a.75.75 0 01-1.024-.274l-.004-.007a.75.75 0 01.275-1.024l.006-.004a.75.75 0 011.025.274l.004.007a.75.75 0 01-.275 1.024l-.006.004zm.282-6.776a.75.75 0 00-.274-1.025l-.007-.003a.75.75 0 00-1.024.274l-.004.007a.75.75 0 00.274 1.024l.007.004a.75.75 0 001.024-.274l.004-.007zm1.369 5.129a.75.75 0 01-1.025.274l-.006-.003a.75.75 0 01-.275-1.025l.004-.006a.75.75 0 011.025-.275l.006.004a.75.75 0 01.275 1.024l-.004.007zm-.145-1.502a.75.75 0 00.75-.75v-.007a.75.75 0 00-.75-.75h-.008a.75.75 0 00-.75.75v.008c0 .414.336.75.75.75h.008zm-3.75 2.243a.75.75 0 01.75.75v.008a.75.75 0 01-.75.75h-.008a.75.75 0 01-.75-.75V18a.75.75 0 01.75-.75h.008zm-2.871-.47a.75.75 0 00.274-1.025l-.003-.006a.75.75 0 00-1.025-.275l-.006.004a.75.75 0 00-.275 1.025l.004.006a.75.75 0 001.024.274l.007-.003zm1.366-5.12a.75.75 0 01-1.025-.274l-.004-.006a.75.75 0 01.275-1.025l.006-.003a.75.75 0 011.025.274l.004.007a.75.75 0 01-.275 1.024l-.006.004zm.281 6.215a.75.75 0 00-.275-1.024l-.006-.004a.75.75 0 00-1.025.274l-.003.007a.75.75 0 00.274 1.024l.007.004a.75.75 0 001.024-.274l.004-.007zM6.655 12.76a.75.75 0 01-1.025.274l-.006-.003a.75.75 0 01-.275-1.025L5.353 12a.75.75 0 011.025-.275l.006.004a.75.75 0 01.275 1.024l-.004.007zm-1.15 2.248a.75.75 0 00.75-.75v-.007a.75.75 0 00-.75-.75h-.008a.75.75 0 00-.75.75v.008c0 .414.336.75.75.75h.008zM17.25 10.5a1.5 1.5 0 110 3 1.5 1.5 0 010-3zm1.5 6a1.5 1.5 0 10-3 0 1.5 1.5 0 003 0z" clip-rule="evenodd"/>
</svg>
